build/svg/cmd/sc_numberformatdecimal.svg

<?xml version="1.0" encoding="UTF-8" standalone="no"?>
<svg
   xmlns:dc="http://purl.org/dc/elements/1.1/"
   xmlns:cc="http://creativecommons.org/ns#"
   xmlns:rdf="http://www.w3.org/1999/02/22-rdf-syntax-ns#"
   xmlns:svg="http://www.w3.org/2000/svg"
   xmlns="http://www.w3.org/2000/svg"
   xmlns:sodipodi="http://sodipodi.sourceforge.net/DTD/sodipodi-0.dtd"
   xmlns:inkscape="http://www.inkscape.org/namespaces/inkscape"
   viewBox="0 0 16 16"
   version="1.1"
   id="svg4"
   sodipodi:docname="sc_numberformatdecimal.svg"
   inkscape:version="0.92.5 (2060ec1f9f, 2020-04-08)"
   inkscape:export-filename="/home/jupiter007/Libreoffice yaru theme fullcolor/build/cmd/sc_numberformatdecimal.png"
   inkscape:export-xdpi="95"
   inkscape:export-ydpi="95"><metadata
   id="metadata10">
  <rdf:RDF>
    <cc:Work
       rdf:about="">
      <dc:format>image/svg+xml</dc:format>
      <dc:type
         rdf:resource="http://purl.org/dc/dcmitype/StillImage" />
    </cc:Work>
  </rdf:RDF>
</metadata>
<defs
   id="defs8" />
<sodipodi:namedview
   pagecolor="#ffffff"
   bordercolor="#666666"
   borderopacity="1"
   objecttolerance="10"
   gridtolerance="10"
   guidetolerance="10"
   inkscape:pageopacity="0"
   inkscape:pageshadow="2"
   inkscape:window-width="1920"
   inkscape:window-height="1011"
   id="namedview6"
   showgrid="true"
   inkscape:zoom="41.7193"
   inkscape:cx="7.1223208"
   inkscape:cy="8.164248"
   inkscape:window-x="0"
   inkscape:window-y="32"
   inkscape:window-maximized="1"
   inkscape:current-layer="svg4">
  <inkscape:grid
     type="xygrid"
     id="grid833" />
</sodipodi:namedview>



/&gt;<path
   sodipodi:nodetypes="cccscsccccccccscscccccc"
   inkscape:connector-curvature="0"
   id="path4237-1"
   d="M 4.9941159,0.99971 C 3.7359159,1.01421 2.815225,0.969106 2.0624751,1.3844756 1.686105,1.5921352 1.3892441,1.9438623 1.2245841,2.3825223 1.0599141,2.8211923 0.999975,3.3421103 0.999975,3.9997107 v 1.488281 6.5122983 c 0,0.65761 0.0599,1.178577 0.224609,1.617188 0.16468,0.438611 0.4615311,0.788524 0.8378911,0.996093 0.7527199,0.41513 1.6735409,0.371649 2.9316408,0.386719 h 0.002 6.0058591 0.0039 c 1.25819,-0.0145 2.178891,0.0306 2.931641,-0.384766 0.37637,-0.20766 0.673221,-0.559386 0.837891,-0.998046 0.164539,-0.438671 0.224618,-0.959578 0.224618,-1.617188 V 5.4665077 3.9997107 c 0,-0.6576004 -0.0599,-1.1785784 -0.224609,-1.6171884 -0.16468,-0.4386 -0.461531,-0.788534 -0.837891,-0.9960935 C 13.184755,0.9712988 12.263924,1.01479 11.005834,0.99971 h -0.002 -6.0058591 z"
   style="font-style:normal;font-variant:normal;font-weight:normal;font-stretch:normal;font-size:15px;line-height:125%;font-family:Ubuntu;-inkscape-font-specification:Ubuntu;text-align:center;letter-spacing:0px;word-spacing:0px;writing-mode:lr-tb;text-anchor:middle;display:inline;opacity:0.6;fill:#000000;fill-opacity:1;stroke:none;stroke-width:0.99980211" />
<path
   inkscape:connector-curvature="0"
   id="path1993"
   d="m 7.9833439,2.0268943 c -1.556581,0.0108 -3.10999,-0.01175 -4.659941,0.03878 C 2.862174,2.1083443 2.307215,2.2720942 2.168063,2.7756413 1.9490691,3.4109883 2.0596491,4.1094287 2.0222671,4.7575667 c -0.0078,2.297084 -0.02297,5.5964243 0.02152,7.8857763 0.0391,0.461929 0.2025509,1.012666 0.6987559,1.163666 0.6324559,0.225082 1.2841439,0.12274 1.9359739,0.154298 1.424235,0.0068 2.850563,0.01102 4.2764201,0.01131 1.704531,3.5e-4 1.408388,-0.005 3.10719,-0.01851 0.511911,-0.01201 1.183699,0.01993 1.584745,-0.405191 0.421097,-0.539783 0.287073,-1.268021 0.322745,-1.903786 0.01187,-2.444323 0.02769,-5.9110923 -0.0219,-8.3567927 -0.04928,-0.40204 -0.169992,-0.862952 -0.575139,-1.044475 -0.668169,-0.294097 -1.426205,-0.168019 -2.125921,-0.205573 -1.754407,-0.0118 -1.508874,-0.01248 -3.263313,-0.01139 z"
   style="opacity:1;vector-effect:none;fill:#a6d74f;fill-opacity:1;stroke:none;stroke-width:1;stroke-linecap:round;stroke-linejoin:bevel;stroke-miterlimit:4;stroke-dasharray:none;stroke-dashoffset:0;stroke-opacity:1"
   sodipodi:nodetypes="cccccccscccccccc" />
<circle
   style="opacity:1;fill:#4d4d4d;fill-opacity:1;stroke:none;stroke-width:1;stroke-linecap:round;stroke-linejoin:round;stroke-miterlimit:4;stroke-dasharray:none;stroke-opacity:1"
   id="path842"
   cx="7.999999"
   cy="11"
   r="1" />
<path
   style="opacity:1;fill:#4d4d4d;fill-opacity:1;stroke:none;stroke-width:8.77999973;stroke-linejoin:round;stroke-miterlimit:4;stroke-dasharray:none;stroke-opacity:1"
   d="M 11 5 C 9.892 5 9 5.892 9 7 L 9 9 C 9 10.108 9.892 11 11 11 C 12.108 11 13 10.108 13 9 L 13 7 C 13 5.892 12.108 5 11 5 z M 11 6 C 11.554 6 12 6.446 12 7 L 12 9 C 12 9.554 11.554 10 11 10 C 10.446 10 10 9.554 10 9 L 10 7 C 10 6.446 10.446 6 11 6 z "
   id="rect4527" />
<path
   id="path4533"
   d="M 5,5 C 3.892,5 3,5.892 3,7 v 2 c 0,1.108 0.892,2 2,2 1.108,0 2,-0.892 2,-2 V 7 C 7,5.892 6.108,5 5,5 Z M 5,6 C 5.554,6 6,6.446 6,7 V 9 C 6,9.554 5.554,10 5,10 4.446,10 4,9.554 4,9 V 7 C 4,6.446 4.446,6 5,6 Z"
   style="opacity:1;fill:#4d4d4d;fill-opacity:1;stroke:none;stroke-width:8.77999973;stroke-linejoin:round;stroke-miterlimit:4;stroke-dasharray:none;stroke-opacity:1"
   inkscape:connector-curvature="0" />
</svg>

<svg xmlns="http://www.w3.org/2000/svg" viewBox="0 0 16 16">/&gt;<path d="M4.994 1c-1.258.014-2.179-.03-2.932.384a1.88 1.88 0 00-.837.999C1.06 2.82 1 3.343 1 4v8c0 .658.06 1.179.225 1.617.164.44.461.789.837.997.753.415 1.674.371 2.932.386h6.012c1.258-.014 2.179.03 2.932-.384a1.88 1.88 0 00.837-.999c.165-.438.225-.96.225-1.617V4c0-.658-.06-1.179-.225-1.617a1.875 1.875 0 00-.837-.997c-.753-.415-1.674-.371-2.932-.386H4.998z" style="line-height:125%;-inkscape-font-specification:Ubuntu;text-align:center" font-weight="400" font-size="15" font-family="Ubuntu" letter-spacing="0" word-spacing="0" text-anchor="middle" opacity=".6"/><path d="M7.983 2.027c-1.556.01-3.11-.012-4.66.039-.46.042-1.016.206-1.155.71-.219.635-.108 1.333-.146 1.982-.008 2.297-.023 5.596.022 7.885.039.462.202 1.013.699 1.164.632.225 1.284.123 1.936.154 1.424.007 2.85.011 4.276.012 1.704 0 1.408-.005 3.107-.019.512-.012 1.184.02 1.585-.405.421-.54.287-1.268.323-1.904.011-2.444.027-5.911-.022-8.357-.05-.402-.17-.863-.575-1.044-.669-.294-1.427-.168-2.126-.206-1.755-.012-1.51-.012-3.264-.011z" fill="#a6d74f"/><circle cx="8" cy="11" r="1" fill="#4d4d4d"/><path d="M11 5c-1.108 0-2 .892-2 2v2c0 1.108.892 2 2 2s2-.892 2-2V7c0-1.108-.892-2-2-2zm0 1c.554 0 1 .446 1 1v2c0 .554-.446 1-1 1s-1-.446-1-1V7c0-.554.446-1 1-1zM5 5c-1.108 0-2 .892-2 2v2c0 1.108.892 2 2 2s2-.892 2-2V7c0-1.108-.892-2-2-2zm0 1c.554 0 1 .446 1 1v2c0 .554-.446 1-1 1s-1-.446-1-1V7c0-.554.446-1 1-1z" fill="#4d4d4d"/></svg>
